img/loupe.svg

<svg fill="none" height="22" viewBox="0 0 23 22" width="23" xmlns="http://www.w3.org/2000/svg"><g fill="#fff"><path d="m0 0h6.8678v1.71695h-6.8678z" transform="matrix(-.718931 .695081 .718931 .695081 4.9375 15.6534)"/><path clip-rule="evenodd" d="m12.0969 18c-4.56649 0-8.09998-3.6771-8.09998-8 0-4.32285 3.53349-8 8.09998-8 4.5665 0 8.1 3.67715 8.1 8 0 4.3229-3.5335 8-8.1 8zm0 2c-5.52282 0-9.99998-4.4772-9.99998-10 0-5.52285 4.47716-10 9.99998-10 5.5229 0 10 4.47715 10 10 0 5.5228-4.4771 10-10 10z" fill-rule="evenodd"/></g></svg>

<svg width="23" height="22" viewBox="0 0 23 22" fill="none" xmlns="http://www.w3.org/2000/svg">
<rect width="6.8678" height="1.71695" transform="matrix(-0.718931 0.695081 0.718931 0.695081 4.9375 15.6534)" fill="white"/>
<path fill-rule="evenodd" clip-rule="evenodd" d="M12.0969 18C7.53041 18 3.99692 14.3229 3.99692 10C3.99692 5.67715 7.53041 2 12.0969 2C16.6634 2 20.1969 5.67715 20.1969 10C20.1969 14.3229 16.6634 18 12.0969 18ZM12.0969 20C6.57408 20 2.09692 15.5228 2.09692 10C2.09692 4.47715 6.57408 0 12.0969 0C17.6198 0 22.0969 4.47715 22.0969 10C22.0969 15.5228 17.6198 20 12.0969 20Z" fill="white"/>
</svg>
